Sources/FrostedUI/Resources/Icons.xcassets/plusRectangle32.imageset/plus-rectangle-32.svg

<svg width="32" height="32" viewBox="0 0 32 32" fill="none" xmlns="http://www.w3.org/2000/svg" data-fui-icon="true">
  <path
    d="M16 24C15.5858 24 15.25 23.6642 15.25 23.25V16.75H8.75C8.33579 16.75 8 16.4142 8 16C8 15.5858 8.33579 15.25 8.75 15.25H15.25V8.75C15.25 8.33579 15.5858 8 16 8C16.4142 8 16.75 8.33579 16.75 8.75V15.25H23.25C23.6642 15.25 24 15.5858 24 16C24 16.4142 23.6642 16.75 23.25 16.75H16.75V23.25C16.75 23.6642 16.4142 24 16 24Z"
    fill="currentColor"
  />
  <path
    fill-rule="evenodd"
    clip-rule="evenodd"
    d="M2 7.25C2 4.35051 4.35051 2 7.25 2H24.75C27.6495 2 30 4.3505 30 7.25V24.75C30 27.6495 27.6495 30 24.75 30H7.25C4.35051 30 2 27.6495 2 24.75V7.25ZM7.25 3.5C5.17893 3.5 3.5 5.17893 3.5 7.25V24.75C3.5 26.8211 5.17893 28.5 7.25 28.5H24.75C26.8211 28.5 28.5 26.8211 28.5 24.75V7.25C28.5 5.17893 26.8211 3.5 24.75 3.5H7.25Z"
    fill="currentColor"
  />
</svg>

<svg xmlns="http://www.w3.org/2000/svg" width="32" height="32" fill="none" data-fui-icon="true" viewBox="0 0 32 32"><path fill="currentColor" d="M16 24a.75.75 0 0 1-.75-.75v-6.5h-6.5a.75.75 0 0 1 0-1.5h6.5v-6.5a.75.75 0 0 1 1.5 0v6.5h6.5a.75.75 0 0 1 0 1.5h-6.5v6.5A.75.75 0 0 1 16 24"/><path fill="currentColor" fill-rule="evenodd" d="M2 7.25C2 4.35 4.35 2 7.25 2h17.5C27.65 2 30 4.35 30 7.25v17.5c0 2.9-2.35 5.25-5.25 5.25H7.25A5.25 5.25 0 0 1 2 24.75zM7.25 3.5A3.75 3.75 0 0 0 3.5 7.25v17.5a3.75 3.75 0 0 0 3.75 3.75h17.5a3.75 3.75 0 0 0 3.75-3.75V7.25a3.75 3.75 0 0 0-3.75-3.75z" clip-rule="evenodd"/></svg>
